X: 130145
T: Morning Mist
S: M.Mulvihill
Z: B.Black
N:  composed by Joe Burke
R: reel
M: 4/4
L: 1/8
K: Gmix
Bc | d2 BG dGBG | d2 BG DGBd | c2 AF cFAF |\
c2 AF CFAc |
d2 BG dGBG | d2 BG DGBd | c2 AB cedc | BGA^F G2 :|
Bd | g2 dc Bd (3ded | BG (3G^FG DGBd | ageg abag |\
^fdad bdad |
gedc Bd (3ded | BG (3G^FG DGBd | c2 AB cedc |\
BGA^F G2 :|
